docs/svgs/room-outdoors.svg

<svg viewBox="0 0 24 24" height="24px" width="24px" fill="#44739e" xmlns="http://www.w3.org/2000/svg"><title>hue:room-outdoors</title><desc>Source: https://github.com/arallsopp/hass-hue-icons</desc><path d="M 8.25 7.5 C 11.148438 7.5 13.5 9.851562 13.5 12.75 C 13.5 15.410156 11.519531 17.601562 8.953125 17.949219 L 8.953125 20.25 C 8.953125 20.664062 8.617188 21 8.203125 21 C 7.789062 21 7.453125 20.664062 7.453125 20.25 L 7.453125 17.933594 C 4.933594 17.546875 3 15.378906 3 12.75 C 3 9.851562 5.351562 7.5 8.25 7.5 Z M 21 14.507812 C 21 16.945312 19.222656 17.214844 17.25 17.246094 L 17.25 20.25 C 17.25 20.664062 16.914062 21 16.5 21 C 16.085938 21 15.75 20.664062 15.75 20.25 L 15.75 17.242188 C 15.363281 17.238281 14.984375 17.222656 14.625 17.183594 C 14.085938 17.125 13.820312 16.519531 14.085938 16.046875 C 14.636719 15.074219 14.953125 13.949219 14.953125 12.75 C 14.953125 11.128906 14.375 9.644531 13.417969 8.480469 C 13.335938 8.378906 13.308594 8.246094 13.351562 8.121094 C 14.304688 5.378906 15.574219 3 16.5 3 C 18.1875 3 21 10.878906 21 14.507812 Z M 21 14.507812 "/></svg>

<svg viewBox="0 0 24 24" height="24px" width="24px" fill="#44739e" xmlns="http://www.w3.org/2000/svg"><title>hue:room-outdoors</title><desc>Source: https://github.com/arallsopp/hass-hue-icons</desc><path d="M8.25,7.5c2.9,0,5.25,2.35,5.25,5.25c0,2.66-1.98,4.85-4.55,5.2v2.3C8.95,20.66,8.62,21,8.2,21 c-0.41,0-0.75-0.34-0.75-0.75v-2.32C4.93,17.55,3,15.38,3,12.75C3,9.85,5.35,7.5,8.25,7.5z M21,14.51c0,2.44-1.78,2.71-3.75,2.74v3 c0,0.41-0.34,0.75-0.75,0.75s-0.75-0.34-0.75-0.75v-3.01c-0.39,0-0.77-0.02-1.12-0.06c-0.54-0.06-0.8-0.66-0.54-1.14 c0.55-0.97,0.87-2.1,0.87-3.3c0-1.62-0.58-3.11-1.54-4.27c-0.08-0.1-0.11-0.23-0.07-0.36C14.3,5.38,15.57,3,16.5,3 C18.19,3,21,10.88,21,14.51z"/></svg>
